icons/hospital-bill-question.svg

<?xml version="1.0" encoding="UTF-8"?><svg xmlns="http://www.w3.org/2000/svg" viewBox="0 0 50 50"><g id="uuid-b5a315e7-3ee5-4ce6-91f1-3c07f2f39555"><g><path d="M11.77,25.13H28.12c.28,0,.5-.22,.5-.5s-.22-.5-.5-.5H11.77c-.28,0-.5,.22-.5,.5s.22,.5,.5,.5Z"/><path d="M11.77,32.83h11.05c.28,0,.5-.22,.5-.5s-.22-.5-.5-.5H11.77c-.28,0-.5,.22-.5,.5s.22,.5,.5,.5Z"/><path d="M23.66,39.54H11.77c-.28,0-.5,.22-.5,.5s.22,.5,.5,.5h11.89c.28,0,.5-.22,.5-.5s-.22-.5-.5-.5Z"/><path d="M44.47,34.46c0-2.38-.94-4.54-2.46-6.14V11.17s0-.04-.01-.06c0-.02,0-.04-.01-.06-.02-.08-.06-.16-.12-.22h0L31.72,.67h0c-.06-.06-.14-.1-.22-.12-.02,0-.04-.01-.07-.01-.02,0-.04-.01-.06-.01H6.03c-.28,0-.5,.22-.5,.5V48.22c0,.28,.22,.5,.5,.5H41.51c.28,0,.5-.22,.5-.5v-7.63c1.52-1.6,2.46-3.76,2.46-6.14ZM6.53,47.72V1.53H30.87V11.17c0,.28,.22,.5,.5,.5h9.64v15.75c-1.51-1.17-3.4-1.88-5.46-1.88-4.92,0-8.92,4-8.92,8.92s4,8.92,8.92,8.92c2.06,0,3.95-.71,5.46-1.88v6.22H6.53Zm29.03-5.34c-4.37,0-7.92-3.55-7.92-7.92s3.55-7.92,7.92-7.92,7.92,3.55,7.92,7.92-3.55,7.92-7.92,7.92Zm4.75-31.71h-8.44V2.23l8.44,8.44Z"/><path d="M11.94,15.42h3.73v3.73c0,.28,.22,.5,.5,.5h4.31c.28,0,.5-.22,.5-.5v-3.73h3.73c.28,0,.5-.22,.5-.5v-4.31c0-.28-.22-.5-.5-.5h-3.73v-3.73c0-.28-.22-.5-.5-.5h-4.31c-.28,0-.5,.22-.5,.5v3.73h-3.73c-.28,0-.5,.22-.5,.5v4.31c0,.28,.22,.5,.5,.5Zm.5-4.31h3.73c.28,0,.5-.22,.5-.5v-3.73h3.31v3.73c0,.28,.22,.5,.5,.5h3.73v3.31h-3.73c-.28,0-.5,.22-.5,.5v3.73h-3.31v-3.73c0-.28-.22-.5-.5-.5h-3.73v-3.31Z"/><path d="M35.77,37.15c-.3,0-.55,.09-.75,.28-.19,.18-.29,.42-.29,.7,0,.28,.09,.51,.29,.7,.19,.18,.44,.27,.75,.27s.56-.09,.75-.27c.19-.18,.29-.42,.29-.7,0-.29-.1-.52-.29-.7-.19-.19-.44-.28-.75-.28Z"/><path d="M35.89,29.58c-.9,0-1.6,.23-2.12,.69-.52,.46-.78,1.1-.79,1.91h1.86c0-.34,.11-.61,.3-.81,.19-.19,.44-.29,.76-.29,.67,0,1,.36,1,1.08,0,.24-.06,.47-.19,.68-.13,.22-.38,.5-.77,.84-.39,.34-.65,.69-.8,1.05-.15,.35-.22,.83-.22,1.43h1.64l.03-.39c.05-.42,.23-.78,.56-1.1l.52-.49c.41-.39,.69-.75,.85-1.07,.16-.32,.24-.67,.24-1.03,0-.8-.25-1.42-.75-1.85-.5-.44-1.2-.66-2.1-.66Z"/></g></g><g id="uuid-e9cace49-c5a2-493c-b627-1c0e2b1bde1a"><text transform="translate(-.36 54.96)" font-family="Roboto-Regular, Roboto" font-size="6"><tspan x="0" y="0">hospital-bill-question</tspan></text></g></svg>

<svg xmlns="http://www.w3.org/2000/svg" viewBox="0 0 50 50"><g id="beb130b6-856c-488b-b013-710b4032ae29" data-name="ICONS"><path d="M11.77,25.13H28.12a.51.51,0,0,0,.5-.5.5.5,0,0,0-.5-.5H11.77a.5.5,0,0,0-.5.5A.51.51,0,0,0,11.77,25.13Z"/><path d="M11.77,32.83H22.82a.5.5,0,0,0,0-1h-11a.5.5,0,1,0,0,1Z"/><path d="M23.66,39.54H11.77a.5.5,0,0,0-.5.5.51.51,0,0,0,.5.5H23.66a.5.5,0,0,0,.5-.5A.5.5,0,0,0,23.66,39.54Z"/><path d="M44.47,34.46A8.89,8.89,0,0,0,42,28.32V11.17s0,0,0-.06,0,0,0-.07a.59.59,0,0,0-.12-.22h0L31.72.67h0A.48.48,0,0,0,31.5.55H6a.5.5,0,0,0-.5.5V48.22a.5.5,0,0,0,.5.5H41.51a.5.5,0,0,0,.5-.5V40.6A8.91,8.91,0,0,0,44.47,34.46ZM6.53,47.72V1.53H30.87v9.64a.5.5,0,0,0,.5.5H41V27.42a8.83,8.83,0,0,0-5.46-1.88A8.92,8.92,0,1,0,41,41.5v6.22Zm29-5.34a7.92,7.92,0,1,1,7.92-7.92A7.93,7.93,0,0,1,35.55,42.38ZM40.3,10.67H31.87V2.23Z"/><path d="M11.94,15.42h3.73v3.73a.5.5,0,0,0,.5.5h4.31a.5.5,0,0,0,.5-.5V15.42h3.73a.5.5,0,0,0,.5-.5V10.6a.5.5,0,0,0-.5-.5H21V6.37a.5.5,0,0,0-.5-.5H16.17a.5.5,0,0,0-.5.5V10.1H11.94a.5.5,0,0,0-.5.5v4.32A.5.5,0,0,0,11.94,15.42Zm.5-4.32h3.73a.5.5,0,0,0,.5-.5V6.87H20V10.6a.5.5,0,0,0,.5.5h3.73v3.32H20.48a.5.5,0,0,0-.5.5v3.73H16.67V14.92a.5.5,0,0,0-.5-.5H12.44Z"/><path d="M35.77,37.15a1,1,0,0,0-.75.28,1,1,0,0,0,0,1.4,1.18,1.18,0,0,0,1.5,0,1,1,0,0,0,.29-.7.93.93,0,0,0-.29-.7A1,1,0,0,0,35.77,37.15Z"/><path d="M35.89,29.58a3,3,0,0,0-2.12.7A2.45,2.45,0,0,0,33,32.19h1.86a1.22,1.22,0,0,1,.29-.81,1.06,1.06,0,0,1,.76-.29c.67,0,1,.36,1,1.08a1.33,1.33,0,0,1-.19.69,4.33,4.33,0,0,1-.77.84,2.94,2.94,0,0,0-.8,1,4,4,0,0,0-.21,1.43h1.64l0-.39a1.78,1.78,0,0,1,.56-1.1l.51-.49a4.36,4.36,0,0,0,.86-1.07A2.54,2.54,0,0,0,38,30.24,3.08,3.08,0,0,0,35.89,29.58Z"/></g><g id="ab1cc654-ce38-4560-8ad3-842292d75f18" data-name="LABELS"><text transform="translate(-0.36 54.96)" font-size="6" font-family="Roboto-Regular, Roboto">hospital-bill-question</text></g></svg>
